icons/AdobeXd.svg

<svg width="16" height="16" viewBox="0 0 16 16" fill="none" xmlns="http://www.w3.org/2000/svg">
<g clip-path="url(#clip0_2179_3716)">
<path d="M8.22667 11.6L6.36 7.98L8.12 4.6C8.15333 4.54 8.13333 4.5 8.08 4.5H7.00667C6.94082 4.5 6.9205 4.53252 6.88789 4.58472L6.88667 4.58667C6.77629 4.82371 6.66444 5.06173 6.55231 5.30034C6.25134 5.94081 5.94837 6.58554 5.66667 7.22667H5.65333C5.35921 6.56978 5.05066 5.92371 4.74095 5.2752C4.62948 5.0418 4.51782 4.80799 4.40667 4.57333C4.38667 4.51333 4.35333 4.5 4.28667 4.5H3.14C3.09333 4.5 3.05333 4.54667 3.09333 4.6L4.86 8.09333L3.03333 11.6067C3 11.6467 3.00667 11.7 3.07333 11.7H4.18C4.23333 11.7 4.26667 11.68 4.3 11.6267C4.72667 10.7467 5.16667 9.77333 5.56667 8.88H5.58C6.02667 9.82667 6.46 10.74 6.88667 11.62C6.92 11.6867 6.95333 11.7067 7.02667 11.7067H8.18667C8.24 11.7067 8.26 11.6533 8.22667 11.6Z" fill="#FF00FF"/>
<path fill-rule="evenodd" clip-rule="evenodd" d="M8.63333 9.06C8.63333 7.50667 9.63333 6.29333 11.2733 6.29333C11.4133 6.29333 11.4867 6.29333 11.62 6.30667V4.57333C11.62 4.53333 11.6533 4.50667 11.6867 4.50667H12.76C12.8133 4.50667 12.8267 4.52667 12.8267 4.56V10.6533C12.8267 10.8333 12.8267 11.06 12.86 11.3067C12.86 11.3533 12.86 11.36 12.82 11.38C12.26 11.6467 11.6733 11.7667 11.1133 11.7667C9.66667 11.7667 8.63333 10.8733 8.63333 9.06ZM11.62 7.35333C11.52 7.30667 11.3933 7.28667 11.2333 7.28667C10.3933 7.28667 9.83333 7.93333 9.83333 9.00667C9.83333 10.2333 10.4067 10.7267 11.1533 10.7267C11.3133 10.7267 11.4867 10.7067 11.6133 10.6533V7.35333H11.62Z" fill="#FF00FF"/>
<path fill-rule="evenodd" clip-rule="evenodd" d="M0 16V0H16V16H0ZM0.8 0.8H15.2V15.2H0.8V0.8Z" fill="#FF00FF"/>
</g>
<defs>
<clipPath id="clip0_2179_3716">
<rect width="16" height="16" fill="white"/>
</clipPath>
</defs>
</svg>

<svg width="16" height="16" fill="none" xmlns="http://www.w3.org/2000/svg"><g clip-path="url(#a)" fill="#F0F"><path d="M8.227 11.6 6.36 7.98 8.12 4.6c.033-.06.013-.1-.04-.1H7.007c-.066 0-.087.033-.12.085v.002c-.11.237-.223.475-.335.713-.3.64-.604 1.286-.885 1.927h-.014c-.294-.657-.602-1.303-.912-1.952-.112-.233-.223-.467-.334-.702-.02-.06-.054-.073-.12-.073H3.14c-.047 0-.087.047-.047.1L4.86 8.093l-1.827 3.514c-.033.04-.026.093.04.093H4.18c.053 0 .087-.02.12-.073.427-.88.867-1.854 1.267-2.747h.013c.447.947.88 1.86 1.307 2.74.033.067.066.087.14.087h1.16c.053 0 .073-.054.04-.107z"/><path fill-rule="evenodd" clip-rule="evenodd" d="M8.633 9.06c0-1.553 1-2.767 2.64-2.767.14 0 .214 0 .347.014V4.573c0-.04.033-.066.067-.066h1.073c.053 0 .067.02.067.053v6.093c0 .18 0 .407.033.654 0 .046 0 .053-.04.073a3.97 3.97 0 0 1-1.707.387c-1.446 0-2.48-.894-2.48-2.707zm2.987-1.707a.916.916 0 0 0-.387-.066c-.84 0-1.4.646-1.4 1.72 0 1.226.574 1.72 1.32 1.72.16 0 .334-.02.46-.074v-3.3h.007z"/><path fill-rule="evenodd" clip-rule="evenodd" d="M0 16V0h16v16H0zM.8.8h14.4v14.4H.8V.8z"/></g><defs><clipPath id="a"><path fill="#fff" d="M0 0h16v16H0z"/></clipPath></defs></svg>
